X:1
T:Weary Not in Well Doing
T:Weary Not in Well Doing
T:William Thomas Giffe
T:Helen Reyburn, 1886
T:Public Domain Courtesy of the Cyber Hymnal™
C:William Thomas Giffe
Z:Public Domain
Z:Courtesy of the Cyber Hymnal™
%%score ( 1 2 ) ( 3 4 )
L:1/8
Q:1/4=105
M:4/4
K:A
V:1 treble 
V:2 treble 
V:3 bass 
V:4 bass 
V:1
 [CA]2 [CA][DA] [EA]2 [Ec]2 | [EB]4 E4 | [EB]2 [EB][Ec] [EB]2 [DE]2 | [CA]6 z2 | %4
w: 1.~Let us be pa- tient,|pa- tient,|Think of the grow- ing|grain,|
w: 2.~Let us be pa- tient,|pa- tient,|Strive as the grain to|grow;|
w: 3.~Let us be pa- tient,|pa- tient,|Day af- ter day to|gain,|
 [CA]2 [CA][DA] [EA]2 [CA][Ec] | [EB]2 E2 [EB]4 | [EB]2 [Ec][DB] [CA]2 [DG]2 | [CA]6 z2 || %8
w: How long it lies in the|dark- some earth,|Nur- tured by sun and|rain.|
w: The ten- der grass and the|rip- ening ear,|Her- alds the corn we|know.|
w: Till ful- ly ripe all our|sheaves may be|Ga- thered like gold- en|grain.|
"^Refrain" F4 A4 | E4 A4 | [EB]2 [EB]2 [EA]2 [EB]2 | [Ec]6 z2 | [DF]2 [DF][DF] [FA]2 [DF][DF] | %13
w: |||||
w: Wait- ing,|pray- ing,|striv- ing day by|day,|Some- thing to do for the|
w: |||||
 [CE]2 [EA]2 [Ec]4 | [Ec]2 [CA][CA] [DB]2 [DG]2 | [CA]6 z2 |] %16
w: |||
w: Mas- ter’s sake,|Some- thing for Him to|say.|
w: |||
V:2
 x8 | x4 E4 | x8 | x8 | x8 | x2 E2 x4 | x8 | x8 || (D2 D2) (F2 D2) | (C2 C2) (E2 C2) | x8 | x8 | %12
 x8 | x8 | x8 | x8 |] %16
V:3
 [A,,A,]2 [A,,A,][B,,A,] [C,A,]2 [A,,A,]2 | [E,G,]2 [E,G,]2 [E,G,]2 [E,G,]2 | %2
w: ~ ~ ~ ~ ~|~ ~ ~ ~|
 [E,G,]2 [E,G,][E,A,] [E,G,]2 [E,B,]2 | [A,,A,]6 z2 | %4
w: ~ ~ ~ ~ ~|~|
 [A,,A,]2 [A,,A,][B,,A,] [C,A,]2 [A,,A,][A,,A,] | [E,G,]2 [E,G,]2 [E,G,]4 | %6
w: ~ ~ ~ ~ ~ ~|~ ~ ~|
 [E,G,]2 [E,A,][E,G,] [E,A,]2 [E,B,]2 | [A,,A,]6 z2 || [D,A,]2 [D,A,]2 [D,D]2 [F,A,]2 | %9
w: ~ ~ ~ ~ ~|~|Wait- ing, trust- ing,|
 A,2 A,2 [A,,C]2 [A,,A,]2 | [E,G,]2 [E,G,]2 [C,A,]2 [E,G,]2 | A,6 z2 | %12
w: wait- ing, pray- ing,|||
 [D,A,]2 [D,A,][D,A,] [D,A,]2 [D,A,][D,A,] | [A,,A,]2 [A,,C]2 [A,,A,]4 | %14
w: ||
 [E,A,]2 [E,A,][E,A,] [E,G,]2 [E,B,]2 | [A,,A,]6 z2 |] %16
w: ||
V:4
 x8 | x8 | x8 | x8 | x8 | x8 | x8 | x8 || x8 | A,2 A,2 x4 | x8 | A,6 x2 | x8 | x8 | x8 | x8 |] %16

